X:2
T:A la Mode de France
M:2/2
L:1/4
K:D
a | "D" afga | f e/f/ da|afga|f2 d :|
|: e |"A" e A d e | "D" f e/f/ d e | "A" eAde | "D" f2 d :|
%
%
